!!!!SEGMENT: 065-1-BH-001-violoncello.krn
!!!COM: Chopin, Fryderyk
!!!OTL: Sonate pour Piano et Violoncelle
!!!OMV: 1
!!!OPS: Op. 65
!!!PPR: Breitkopf & Härtel
!!!PPP: Leipzig
!!!NIFC-rismID: Wbfc brak
!!!NIFC-shelfmark: PL-Wbfc 4692/n
!!!OMD: Allegro moderato.
**kern	**fing	**dynam
*part1	*	*part1
*I"SONATE.	*	*
*staff1	*	*
*clefF4	*	*
*k[b-e-]	*	*
*M4/4	*	*
*met(c)	*	*
*kcancel	*	*
=1	=1	=1
4r	.	.
=2	=2	=2
1rF	.	.
=3	=3	=3
1rF	.	.
=4	=4	=4
1rF	.	.
=5	=5	=5
1rF	.	.
!!LO:LB:g=original
=6	=6	=6
1rF	.	.
=7	=7	=7
1rF	.	.
=8	=8	=8
1rF	.	.
=9	=9	=9
!LO:TX:a:t=2.|a:rj	!	!LO:DY:rj
(>\8.AL	.	f
>16B-Jk)	.	.
(>2A;>^<	.	.
!LO:TX:b:i:t=dolce	!	!
8.dL	.	.
16cJk)	.	.
=10	=10	=10
(>4B-	.	.
4G	.	.
4F#X	.	.
8.GL	.	.
16E-Jk)	.	.
=11	=11	=11
(>4.D	.	.
8qF/	.	.
8E-	.	.
4D)	.	.
!LO:TX:a:t=2.|a	!	!
4D	.	.
=12	=12	=12
(>4D	.	<
8.EnL	.	.
16F#XJk	.	.
(>4G)	.	.
4d)	.	.
.	.	[
!!LO:LB:g=original
=13	=13	=13
(>4.d	.	.
8e-	.	.
4c)	.	.
4G	.	<
=14	=14	=14
(>4d	.	<
!LO:TUP:a	!	!
!LO:TX:a:t=P:note-head-side tuplet number:problem	!	!
12dL	.	.
12f	.	.
>12e-J)	.	.
(>4c	.	.
4e-)	.	.
=15	=15	=15
(>4.e-	.	[
>8f)	.	.
(>4d-X	.	.
4c)	.	.
=16	=16	=16
(>8.BnL	.	<
16gJk)	.	.
[>4g	.	.
8gL]	.	[f
(>16fL	.	.
16e-JJ	.	.
16dnLL	.	.
16c	.	.
16d	.	.
16e-JJ)	.	.
=17	=17	=17
(>8.DL	.	<
16dJk)	.	.
[>4d	.	.
.	.	[
>8dL]	.	.
(>16cL	.	.
16B-JJ	.	.
16ALL	.	.
16G	.	.
16A	.	.
16B-JJ)	.	.
!!LO:LB:g=original
=18	=18	=18
(>16ALL	.	.
16G	.	.
16A	.	.
16B-JJ)	.	.
(>16ALL	.	.
16G	.	.
16d	.	.
16B-JJ)	.	.
(>16ALL	.	.
16G	.	.
16A	.	.
16B-JJ)	.	.
(>16F#XLL	.	.
16A	.	.
16G	.	.
16CJJ)	.	.
=19	=19	=19
!LO:TX:t=P:note-position:problem	!	!LO:DY:rj
1D	.	ff
=20	=20	=20
(<1DD	.	.
=21	=21	=21
4GG)	.	.
4r	.	.
!	!	!LO:DY:rj
4G	.	p
4G	.	.
=22	=22	=22
(>4G	.	.
8B-L	.	.
8A-XJ)	.	.
(>8A-L	.	.
8c	.	.
8e-	.	.
8e-'>J)	.	.
=23	=23	=23
(>4e-	.	.
4f	.	.
4e-	.	.
4d-X)	.	.
!!LO:LB:g=original
=24	=24	=24
(>[>2c	.	.
8cL]	.	.
8c#X	.	.
8dn	.	.
8AJ)	.	.
=25	=25	=25
[>2B-	.	.
>8B-L]	.	.
(>8A	.	.
8B-	.	.
8F#XJ)	.	.
=26	=26	=26
(>8F#XL	.	.
8GJ	.	.
4D	.	<
8DL)	.	.
(>8G	.	.
8B-	.	.
8c#XJ)	.	[
=27	=27	=27
(>4d	.	[
8cnL	.	<
8B-J	.	.
8AL)	.	.
(>8G	.	.
8B-	.	.
8dJ)	.	[
=28	=28	=28
(>2f	.	[
4e-)	.	.
(>8dL	.	.
8cJ)	.	.
!!LO:LB:g=original
=29	=29	=29
[>2d	.	.
8dL]	.	<
8g	.	.
8f	.	.
8e-J	.	.
=30	=30	=30
(>8.dL	.	.
16e-Jk)	.	.
[>4d	.	.
>8dL]	.	.
8Bn	.	.
8d	.	.
8cJ	.	.
=31	=31	=31
4f	.	.
!	!	!LO:DY:rj
2a-X	.	f
(>8.A-XL	.	.
16A-'>Jk)	.	.
=32	=32	=32
(>16qqG/LL	.	.
16qqA-X/	.	.
16qqB-/JJ	.	.
4A-y	.	.
8G)	.	.
>8d	.	.
(>8c#XL	.	.
8d)	.	.
(>8.g	.	.
16dJk)	.	.
=33	=33	=33
4e-	.	.
(>8e-L	.	>
>8F#XJ)	.	]
(>8F#L	.	.
8cJ)	.	.
(>8cL	.	.
8DJ)	.	.
!!LO:LB:g=original
=34	=34	=34
(>8B-L	.	.
>8e-J)	.	.
(>8e-L	.	.
8F#XJ)	.	.
(>8F#L	.	.
8cJ)	.	.
(>8cL	.	.
8DJ)	.	.
=35	=35	=35
!LO:TUP:a	!	!
!LO:TX:a:t=P:note-head-side tuplet number:problem	!	!
(>12cL	.	.
12.B-	.	.
>24AJk)	.	.
!LO:TUP:a	!	!
!LO:TX:a:t=P:note-head-side tuplet number:problem	!	!
(>12AL	.	.
12.G	.	.
24FnJk)	.	.
!LO:TUP:a	!	!
!LO:TX:a:t=P:note-head-side tuplet number:problem	!	!
(>12FL	.	.
12.E-	.	.
24DJk)	.	.
!LO:TUP:b	!	!
!LO:TX:a:t=P:note-head-side tuplet number:problem	!	!
(</12DL	.	.
12.C/	.	.
.	.	.
24BB-Jk)	.	.
=36	=36	=36
4AA/	.	.
8AA^<L	.	.
!LO:TUP:b	!	!
!LO:TX:a:t=P:note-head-side tuplet number:problem	!	!
(<24GGL	.	.
24FF	.	.
24EEnJJ	.	.
4DD)	.	.
(<8GG^<L	.	.
!LO:TUP:b	!	!
!LO:TX:a:t=P:note-head-side tuplet number:problem	!	!
24FFL	.	.
24EE-X	.	.
24DDJJ	.	.
=37	=37	=37
!	!	!LO:DY:a
(>8.CCL)	.	f
16GGJk	.	.
!LO:TUP:a	!	!
!LO:TX:a:t=P:note-head-side tuplet number:problem	!	!
12CL	.	.
12E-	.	.
12GJ)	.	.
[<2CC	.	.
!!LO:LB:g=original
=38	=38	=38
!LO:TUP:b	!	!
!LO:TX:a:t=P:note-head-side tuplet number:problem	!	!
12CCL]	.	.
(>12GG	.	.
12CJ	.	.
!LO:TUP:a	!	!
!LO:TX:a:t=P:note-head-side tuplet number:problem	!	!
12E-L	.	.
12G	.	.
12cJ)	.	.
[<2CC	.	.
=39	=39	=39
8.CCL]	.	.
(>16CJk	.	.
!LO:TUP:a	!	!
!LO:TX:a:t=P:note-head-side tuplet number:problem	!	!
12E-L	.	.
12A-X	.	.
12e-J)	.	.
4.e-	.	.
8CC	.	.
.	.	.
=40	=40	=40
8CL	.	.
8C-XJ	.	.
4BB-	.	.
*Xtuplet	*	*
(>12BB-L	.	.
12G-X	.	.
12d-XJ)	.	.
8.d-L	.	.
16BB-Jk	.	.
=41	=41	=41
8CL	.	.
8FFJ	.	.
16DD/LL	.	.
(<16D	.	.
16F	.	.
16dJJ)	.	.
4d	.	.
4Bn 4D 4GG	.	.
!!LO:LB:g=original
=42	=42	=42
4c 4E- 4GG 4CC	.	.
(>16GGLL	.	.
16D	.	.
16F	.	.
16dJJ)	.	.
4d	.	.
(<16GGLL	.	.
16FF	.	.
16EE-	.	.
16DDJJ	.	.
=43	=43	=43
!	!	!LO:DY:a
2DD-X)	.	fz
4r	.	.
(>4d-X	.	.
=44	=44	=44
4G	.	.
16qqA-X/LL	.	.
16qqG/	.	.
16qqF#X/JJ	.	.
8.GL	.	.
>16G#XJk	.	.
4An)	.	.
8.aL	.	.
16gnJk	.	.
=45	=45	=45
(4f#X 4A	.	.
!	!	!LO:DY:rj
4d 4F#X)	.	p
(>4c#X 4F#	.	.
8.dL 8.F#	.	.
16AJk 16F#)	.	.
=46	=46	=46
*^	*	*
2.A	(>4.D	.	.
.	8E-X	.	.
.	4D)	.	.
4rdyy	4r	.	.
*v	*v	*	*
!!LO:LB:g=original
=47	=47	=47
(>4g 4B-	.	<
4e- 4G)	.	.
(>4d 4G	.	.
8.e-L 8.G	.	.
16B-Jk)	.	.
=48	=48	=48
*^	*	*
2.B-	(>4.E-	.	.
.	8F	.	.
.	4E-)	.	.
4rdyy	4r	.	.
*v	*v	*	*
=49	=49	=49
(>4a-X	.	f
4e-)	.	.
4f	.	.
(>8.e-L	.	.
16d-XJk)	.	.
=50	=50	=50
*tuplet	*	*
(>8.cL	.	.
16d-XJk)	.	.
(>[>4e-	.	.
8e-L]	.	.
8d-J)	.	.
!LO:TUP:a	!	!
!LO:TX:a:t=P:note-head-side tuplet number:problem	!	!
(>12d-L	.	.
12c	.	.
12B-J)	.	.
=51	=51	=51
(>8B-L	.	.
[>8E-J	.	.
!LO:TUP:a	!	!
!LO:TX:a:t=P:note-head-side tuplet number:problem	!	!
12E-L]	.	.
12F	.	.
12GJ)	.	.
(>8A-XL	.	.
8B-	.	.
8.c	.	.
16c'>Jk)	.	.
!!LO:LB:g=original
=52	=52	=52
(>4c	.	.
4Dn)	.	.
4r	.	.
4D\	.	.
=53	=53	=53
(>[>4D	.	<
!LO:TUP:a	!	!
!LO:TX:a:t=P:note-head-side tuplet number:problem	!	!
12DL]	.	.
12En	.	.
>12F#XJ)	.	.
(>8GL	.	.
8A	.	.
8.B-	.	.
16B-'>Jk)	.	[
=54	=54	=54
(>4B-	.	.
4A)	.	.
.	.	<
(>8EnL	.	.
8F#X	.	.
8.G	.	.
16G'>Jk)	.	.
=55	=55	=55
(>8GL	.	.
>8F#XJ)	.	.
(>[>4c	.	.
8cL]	.	.
8d	.	.
8.e-	.	.
16e-'>Jk)	.	.
=56	=56	=56
(>4e-	.	.
4D)	.	.
4r	.	.
(>8.e-L	.	.
>16e-'>Jk)	.	.
=57	=57	=57
(>4e-	.	.
4D)	.	.
4r	.	.
4e-	.	.
!!LO:LB:g=original
=58	=58	=58
*	*	*^
(>4e-	.	>	.
.	.	.	>
8.dL	.	.	.
.	.	]	.
>16AJk)	.	.	.
!LO:TX:t=P:dynamic's display - double "p":problem	!	!LO:DY:rj	!
(>16B-LL	.	p	.
16G	.	.	.
16D	.	.	.
16GGJJ	.	.	.
16AALL	.	.	.
16En	.	.	.
16F#X	.	.	.
16EJJ)	.	.	.
*	*	*v	*v
=59	=59	=59
(>\8DL	.	.
16C#XL	.	.
16DJJ	.	.
16EnLL	.	.
16F#X	.	.
16G	.	.
>16AJJ)	.	.
(>16B-LL	.	.
16G	.	.
16D	.	.
16GGJJ	.	.
16AALL	.	.
16E	.	.
16F#	.	.
16EJJ)	.	.
=60	=60	=60
(>8DL	.	.
8AJ	.	.
!LO:TUP:a	!	!
!LO:TX:a:t=P:note-head-side tuplet number:problem	!	!
12B-L	.	.
12A	.	.
12DJ	.	.
!LO:TUP:a	!	!
!LO:TX:a:t=P:note-head-side tuplet number:problem	!	!
12AL	.	.
12d	.	.
12f#XJ	.	.
*clefG2	*	*
*Xtuplet	*	*
12a\L	.	.
12d	3 0	.
12ddJ	3 0	.
*tuplet	*	*
=61	=61	=61
2.dd)	.	.
4r	.	.
=62	=62	=62
1rdd	.	.
*clefF4	*	*
!!LO:PB:g=original
=63	=63	=63
1rdd	.	.
=64	=64	=64
1rdd	.	.
=65	=65	=65
1rdd	.	.
=66	=66	=66
2f	.	p
(>4f'>	.	.
4f'>)	.	.
=67	=67	=67
(>1f	.	.
=68	=68	=68
4e-	.	.
4F#X	.	.
4G	.	.
4e-)	.	.
=69	=69	=69
4qqd/	.	.
2c	.	.
2r	.	.
=70	=70	=70
1rF	.	.
!LO:TX:B:t=1	!	!
.	.	.
.	.	.
=71	=71	=71
4r	.	.
(>8BBnL	.	.
8CJ	.	.
4D	.	.
8E-L	.	.
8DJ)	.	.
=72	=72	=72
(>8DL	.	<
8CJ	.	.
2G)	.	.
.	.	[
4r	.	.
=73	=73	=73
4r	.	.
(>/8C#XL	.	<
8DJ	.	.
4En	.	.
8FL	.	.
8EJ)	.	.
=74	=74	=74
(>8EnL	.	.
8DJ	.	.
4.A)	.	[
(>8AL	.	.
8B-	.	.
>8AJ)	.	.
!!LO:LB:g=original
=75	=75	=75
(>8GL	.	.
8AJ	.	.
4.F)	.	.
(>8FL	.	.
8G	.	.
>8AJ)	.	.
=76	=76	=76
(>8B-	.	.
4E-)	.	.
[<8C#X	.	.
8C#]	.	.
4D	.	.
8En	.	.
=77	=77	=77
(>8.EnL	.	.
16Fk	.	.
8.D	.	.
16GJk)	.	.
(>4F	.	<
4e-X)	.	[
=78	=78	=78
(>4.d	.	<
.	.	.
8c#X)	.	.
(>8cnL	.	.
8Bn	.	.
8B-X	.	.
8dJ)	.	[
.	.	<
=79	=79	=79
8F	.	.
(>4f	.	[>
8A-X)	.	.
(>8A-L	.	.
8GJ)	.	]
4r	.	.
=80	=80	=80
8r	.	.
4e-	.	.
[>8d	.	.
8dL]	.	.
(>8c#XJ	.	.
8cnL	.	.
8e-J)	.	.
!!LO:LB:g=original
=81	=81	=81
8G	.	.
(>4g	.	>
8B-)	.	]
(>8B-	.	.
4A	.	.
8A'>)	.	.
=82	=82	=82
4A	.	.
(>8.cL	.	>
16B-Jk)	.	]
>8B-	.	<
(>16ALL	.	.
>16B-JJ)	.	.
(>16B-LL	.	.
16e-)	.	.
(>16e-	.	.
16fJJ)	.	[
=83	=83	=83
2.g-X	.	.
4r	.	.
=84	=84	=84
4r	.	.
!	!	!LO:DY:rj
4E: 4GGn: (<4CC:	.	f
8cL)	.	.
*clefG2	*	*
16BnL	.	<
16cJJ	.	.
16dLL	.	.
16en	.	.
16f	.	.
16gJJ	.	[[
=85	=85	=85
2a	.	[
4a	.	.
4a	.	.
=86	=86	=86
(<8aL	.	.
8g	.	.
8f	.	.
8aJ)	.	.
(<4d	.	.
4en)	.	.
!!LO:LB:g=original
=87	=87	=87
8f	.	.
8r	.	.
2a^<	.	.
4a	.	.
=88	=88	=88
(<8aL	.	.
8g	.	.
8f)	.	.
(<8aJ	.	.
4d	.	.
4en)	.	.
=89	=89	=89
4f	.	>
2f	.	.
4f	.	]
=90	=90	=90
(<4f	.	p
8enL	.	.
8fJ	.	.
8gL	.	.
8f	.	.
8e	.	.
8dJ)	.	.
=91	=91	=91
(<8c#XL	.	.
8d	.	.
8en	.	.
8dJ	.	<
8fL	.	.
8c#	.	.
8d	.	.
8eJ)	.	.
=92	=92	=92
(<8fL	.	.
8en	.	.
8d)	.	.
(<8fJ	.	.
4Bn)	.	.
(<4c#Xt>	.	.
16qqB/LL	.	.
16qqc#/JJ)	.	.
=93	=93	=93
4d	.	.
4r	.	.
4r	.	.
!	!	!LO:DY:rj
!	!	!LO:HP:a
(<4b-yX\	.	p>
!!LO:LB:g=original
=94	=94	=94
!LO:TX:t=P:decrescendo ends under the line:problem	!	!
4c#X	.	.
4d	.	.
4en	.	]
8dL	.	.
8eJ)	.	.
=95	=95	=95
(<4f	.	.
4en	.	.
4d)	.	.
(<\4b-X	.	>
=96	=96	=96
4c#X	.	.
4d	.	]
4en	.	.
8dL	.	.
8eJ)	.	.
=97	=97	=97
(<4f	.	<
4g)	.	.
(<4a	.	.
4Bn)	.	[
=98	=98	=98
(>4c	.	.
2cc)	3	.
[>(>4cc	.	.
=99	=99	=99
[>4cc]	.	[
16ccLL]	.	.
16bn	.	.
16b)	.	.
(>16ccJJ	.	.
16dd-XLL	.	.
16cc)	.	.
16b-X	.	.
16a-XJJ	.	.
(<16gLL	0	.
16f)	.	.
(<16b-	.	.
16a-JJ)	.	.
!!LO:LB:g=original
=100	=100	=100
(<16a-XLL	.	.
16gJ)	.	.
8cJ	.	.
4r	.	.
4r	.	.
4cc	.	.
=101	=101	=101
[>4cc^<	.	.
(>16ccLL]	.	.
>16dd)	.	.
(>16dd	.	.
16ccJJ)	.	.
(>16ccLL	.	.
16bn)	.	.
(>16b	.	.
16b-XJJ)	.	.
(>16b-LL	.	.
16cc)	.	.
(>16cc	.	.
16b-JJ)	.	.
=102	=102	=102
(<16b-LL	.	.
16a)	.	.
16a	.	.
16aJJ	.	.
(<16aLL	.	<
16g#X)	.	.
16g#	.	.
16g#JJ	.	.
(<16g#LL	.	.
16gn)	.	.
16g	.	.
16gJJ	.	.
(<16gLL	.	.
16f)	.	.
16f	.	.
16fJJ	.	.
=103	=103	=103
(<16fLL	.	.
16b-)	.	.
(<16b-	.	.
<16e-JJ)	.	.
(<16e-LL	.	.
16d)	.	.
16d	.	.
16dJJ	.	.
*clefF4	*	*
(>16dLL	.	.
16A)	.	.
16A	.	.
>16AJJ	.	.
(>16ALL	.	.
16D)	.	.
(>16C	.	.
16BB-JJ)	.	.
!!LO:LB:g=original
=104	=104	=104
(<16AALL	.	f
16BB-	.	.
16GG#X	.	.
16BB-JJ)	.	.
(<16AALL	.	.
16D	.	.
16C	.	.
16BB-JJ)	.	.
(<16AALL	.	.
16BB-	.	.
16GG#	.	.
<16BB-JJ)	.	.
(<16AALL	.	.
16GGn	.	.
16FF	.	.
16EEnJJ)	.	.
=105	=105	=105
[<1DD	.	.
=106	=106	=106
1DD]	.	.
=107	=107	=107
4DD	.	.
2DD	.	.
!LO:TX:t=P:stem-side tuplet number:problem	!	!
!LO:TUP:a	!	!
(<12DD'<L	.	.
12DD'<	.	.
12DD'<J)	.	.
=108	=108	=108
*Xtuplet	*	*
4DD	.	.
(<12DD'<L	.	.
12DD'<	.	.
12DD'<J)	.	.
4DD	.	.
(<16DD'<LL	.	.
16DD'<	.	.
16DD'<	.	.
16DD'<JJ)	.	.
=109	=109	=109
16DDLL	.	.
16EEn	.	.
16FF	.	.
16GGJJ	.	.
16AALL	.	.
16BBn	.	.
16C	.	.
16C#XJJ	.	.
16DLL	.	.
16En	.	.
16F	.	.
16GJJ	.	.
16ALL	.	.
16Bn	.	.
16cn	.	.
16c#XJJ	.	.
*clefG2	*	*
!!LO:LB:g=original
=110	=110	=110
16dLL	1	.
16en	.	.
16f	1	.
16gJJ	.	.
16a\LL	.	.
16a	.	.
16bn	.	.
16cc#XJJ	.	.
16ddLL	.	.
16een	.	.
16ff	.	.
16ggJJ	.	.
8aa	.	.
*clefF4	*	*
!LO:TX:a:t=2.|a	!	!
[>(>8A	.	.
=111	=111	=111
8AL]	.	.
8G#X)	.	.
(>8Gn	.	.
8enJ)	.	.
(>8eL	.	.
8F#X)	.	.
(>8Fn	.	.
8dJ)	.	.
=112	=112	=112
(>4d	.	.
8cL	.	.
8B-J)	.	.
(>8AL	.	.
8En	.	.
8G	.	.
8FJ)	.	.
=113	=113	=113
2D	.	.
2r	.	.
=114	=114	=114
2rD	.	.
4rD	.	.
=115:|	=115:|	=115:|
4rD	.	.
=116	=116	=116
1rF	.	.
!!LO:LB:g=original
=117	=117	=117
1rF	.	.
=118	=118	=118
1rF	.	.
=119	=119	=119
1rF	.	.
=120	=120	=120
1rF	.	.
=121	=121	=121
1rF	.	.
!!LO:LB:g=original
=122	=122	=122
1rF	.	.
=123	=123	=123
1rF	.	.
=124	=124	=124
!	!	!LO:DY:rj
(<8.CL	.	f>
16DJk)	.	.
(>[>4C	.	.
8CL]	.	.
8F	.	]
!LO:TX:b:i:t=dolce	!	!
8En	.	.
8DJ	.	.
=125	=125	=125
8CL)	.	.
(>8F	.	.
8En	.	.
8DJ	.	.
8CL)	.	.
(>8A	.	.
8B-	.	.
8dJ)	.	.
*clefG2	*	*
=126	=126	=126
4c	.	.
(<8.dL	.	.
16enJk)	.	.
4f	.	.
4g	.	<
=127	=127	=127
4a	.	.
(>8.bnL	.	.
16ccJk)	.	.
4dd	.	.
(>8.ccL	.	.
16ddJk)	.	[
=128	=128	=128
(>4.een	.	f
8ff)	.	.
(>[>2ee	.	.
=129	=129	=129
2eenX]	.	.
[<2en	.	.
=130	=130	=130
(>2.enX])	.	.
8.eL	.	.
16d#XJk	.	.
*clefF4	*	*
!!LO:LB:g=original
=131	=131	=131
8.dnL	.	>
.	.	.
16enJk	.	.
2d	.	]]
4d-X)	.	pp
=132	=132	=132
(>4d-X	.	]
4A-X	.	.
4G	.	.
8.A-L	.	.
16FJk)	.	.
=133	=133	=133
(>4.D-X	.	.
8E-)	.	.
2D-	.	.
=134	=134	=134
(>4D-X	.	<
8.E-L	.	.
16FJk)	.	.
(>4G-X	.	.
4A-X)	.	.
=135	=135	=135
!LO:TX:a:i:t=ten.	!	!
2An	.	[
4r	.	.
4A	.	.
=136	=136	=136
4A	.	<
4F#X	.	.
(<4BBn	.	.
8.CL	.	.
16AAJk)	.	.
=137	=137	=137
(<4.CC	.	.
8DD)	.	.
(>4CC	.	.
4F#X)	.	.
!!LO:LB:g=original
=138	=138	=138
(<4BBn	.	.
8.C#XL	.	.
16D#XJk)	.	.
(>4En	.	.
.	.	.
4F#X)	.	.
=139	=139	=139
!LO:TX:b:i:t=dolce	!	!
(>4G#X	.	.
4En)	.	.
(>4D#X	.	.
8.EL	.	.
16C#XJk)	.	.
=140	=140	=140
(>8BBnL	.	<
8F#X	.	.
8A	.	.
8c#XJ)	.	[
(>4.Bn	.	>
8A)	.	.
=141	=141	=141
(>[>4G#X	.	]
8G#L]	.	.
8AJ)	.	<
(>8BnL	.	.
8c#X	.	.
8d#X	.	.
8enJ)	.	.
=142	=142	=142
(>2.f	.	[
4G#X)	.	.
=143	=143	=143
4A	.	f
8B-L	.	<
8cJ	.	.
8dL	.	.
8en	.	.
8f	.	.
8gJ	.	.
.	.	[
!!LO:LB:g=original
=144	=144	=144
4a	.	.
8r	.	.
(>8A	.	.
8GL	.	.
8qA/	.	.
8G	.	.
8F	.	.
8EnJ)	.	.
=145	=145	=145
4D	.	.
8r	.	.
8F	.	.
8GL	.	<
8A	.	.
8B-	.	.
8cJ	.	.
=146	=146	=146
4.d	.	[
(>\8D	.	.
8CL	.	.
8qD/	.	.
8C	.	.
8BB-	.	.
8AAJ)	.	.
=147	=147	=147
4GG	.	.
4BB-	.	.
(<4EE-	.	.
8.GGL)	.	.
(<16GGJk	.	.
=148	=148	=148
4CC#X	.	.
8.GGL)	.	.
(<16GGJk	.	.
4CC#	.	.
8.GGL)	.	.
(<16GGJk	.	.
=149	=149	=149
!LO:TX:t=P:crescendo on the staff:problem	!	!LO:HP:a
(<1CC#X)	.	<
.	.	[[
!!LO:LB:g=original
=150	=150	=150
!LO:TX:b:a:i:t=più	!	!
4A) 4En 4AA	.	.
!	!	!LO:DY:a:rj
4AA 4CC#X	.	f
4E 4AA 4CC#	.	.
8AAL	.	.
*tuplet	*	*
!LO:TUP:b	!	!
!LO:TX:a:t=P:note-head-side tuplet number:problem	!	!
(<24GGL	.	.
24FF	.	.
24EEnJJ)	.	.
=151	=151	=151
8.DDL	.	.
(>16AAJk	.	.
!LO:TUP:a	!	!
!LO:TX:a:t=P:note-head-side tuplet number:problem	!	!
12DL	.	.
12F	.	.
12AJ)	.	.
[<2DD	.	.
=152	=152	=152
8.DDL]	.	.
(>16AAJk	.	.
!LO:TUP:a	!	!
!LO:TX:a:t=P:note-head-side tuplet number:problem	!	!
12DL	.	.
12F	.	.
12AJ)	.	.
(>8DL	.	.
8AJ)	.	.
*clefG2	*	*
!LO:TUP:b	!	!
!LO:TX:a:t=P:note-head-side tuplet number:problem	!	!
(<12dL	.	.
12f	.	.
12gJ)	.	.
=153	=153	=153
4a	.	.
8gL	.	.
8fJ	.	.
(<8enL	.	.
8d	.	.
8f	.	.
8aJ)	.	.
=154	=154	=154
4cc	.	.
(</8ee-XL	.	.
8f#XJ)	.	.
(<8f#L	.	.
8ccJ)	.	.
(<8ccL	.	.
8dJ)	.	.
!!LO:PB:g=original
=155	=155	=155
4b-	.	.
8r	.	.
*clefF4	*	*
8B-	.	.
(>8.B-L	.	.
>16AJk)	.	.
(>8.AL	.	.
16enJk)	.	.
=156	=156	=156
(>8fL	.	.
8dJ)	.	.
8r	.	.
16r	.	.
>16B-	.	.
(>8.B-L	.	.
16AJk)	.	.
(>8.AL	.	.
16gJk)	.	.
=157	=157	=157
!LO:TUP:a	!	!
!LO:TX:a:t=P:note-head-side tuplet number:problem	!	!
(>12gL	.	.
12.f	.	.
>24enJk)	.	.
!LO:TUP:a	!	!
!LO:TX:a:t=P:note-head-side tuplet number:problem	!	!
(>12eL	.	.
12.d	.	.
>24cJk)	.	.
!LO:TUP:a	!	!
!LO:TX:a:t=P:note-head-side tuplet number:problem	!	!
(>12cL	.	.
12.B-	.	.
>24AJk)	.	.
!LO:TUP:a	!	!
!LO:TX:a:t=P:note-head-side tuplet number:problem	!	!
(>12AL	.	.
12.G	.	.
24FJk)	.	.
=158	=158	=158
4En	.	.
\8EL	.	.
*tuplet	*	*
!LO:TUP:a	!	!
!LO:TX:a:t=P:note-head-side tuplet number:problem	!	!
(><24DL	.	.
24C	.	.
24BBnJJ)	.	.
4AA	.	.
8BBnL	.	.
!LO:TUP:b	!	!
!LO:TX:a:t=P:note-head-side tuplet number:problem	!	!
24AAL	.	.
24GG	.	.
24FF#XJJ	.	.
=159	=159	=159
8.EEnL	.	.
16BBnJk	.	.
*Xtuplet	*	*
(>12BBL	.	.
12En	.	.
12GJ)	.	.
!LO:TX:t=P:there is no beginning of the ligature:problem	!	!
[<2EE	.	.
!!LO:LB:g=original
=160	=160	=160
(<8.EEnXL]	.	.
>16BBnJk)	.	.
*tuplet	*	*
!LO:TUP:a	!	!
!LO:TX:a:t=P:note-head-side tuplet number:problem	!	!
(>12BBL	.	.
12En	.	.
12GJ)	.	.
(>8BnL	.	.
*clefG2	*	*
8en\)	.	.
(>8g	.	.
8aJ	0	.
=161	=161	=161
4bn)	.	.
8aL	.	.
8gJ	.	.
(<8f#XL	.	.
8en	.	.
8g	.	.
8bJ)	.	.
=162	=162	=162
4dd	.	.
(>8ffL	.	.
>8g#XJ)	.	.
(>8g#L	.	.
8ddJ)	.	.
(>8ddL	.	.
8en\J)	.	.
=163	=163	=163
(<8enL	.	.
8ccJ)	.	.
(<8ccL	.	.
8d#XJ)	.	.
(<8d#L	.	.
8aJ)	.	.
(>8aL	.	.
*clefF-4	*	*
8BnJ)	.	.
=164	=164	=164
8g	.	.
8r	.	.
(>16GLL	.	.
16c#X	.	.
16en	.	.
16gJJ)	.	.
4g	.	<
(>8fL	.	.
8eJ)	.	.
!!LO:LB:g=original
=165	=165	=165
(>8fL	.	.
8a-XJ)	.	.
(>8a-L	.	.
8BnJ)	.	.
(>8BL	.	.
8fJ)	.	.
(>8fL	.	.
8GJ)	.	.
=166	=166	=166
4e-X	.	.
(>16E-LL	.	.
16A	.	.
16c	.	.
16e-JJ)	.	.
8e-	.	.
8r	.	.
4FF	.	.
=167	=167	=167
!LO:TX:a:i:t=stretto	!	!
!	!	!LO:DY:rj
4EEn	.	ff
(<8AAL	.	.
8CJ)	.	.
>4En	.	.
(>8AL	.	.
8cJ)	.	.
*clefG2	*	*
=168	=168	=168
4en	.	.
(>8aL	.	.
8ccJ)	.	.
4een	.	.
4aa	.	.
*clefF4	*	*
=169	=169	=169
/8.GGL	.	.
16GJk	.	.
(>2G	.	.
4GG)	.	.
=170	=170	=170
2FF#X	.	.
2FFn	.	.
.	.	.
=171	=171	=171
(<4EEn	.	.
8.FFL	.	.
16DDJk)	.	.
(<4EE	.	.
8.FFL	.	.
16DDJk)	.	.
!!LO:LB:g=original
=172	=172	=172
(<4EEn	.	.
8.FFL	.	.
16DDJk)	.	.
(<4EE	.	.
8.FFL	.	.
16DDJk)	.	.
=173	=173	=173
4EEn	.	.
4BBn	.	.
4En	.	.
4en	.	.
*clefG2	*	*
=174	=174	=174
1bn	.	.
=175	=175	=175
2een	.	.
2r	.	.
*clefF4	*	*
=176	=176	=176
(<8.EEnL	.	.
16FFJk)	.	.
2.EE	.	.
=177	=177	=177
1rF	.	.
=178	=178	=178
1rF	.	.
=179	=179	=179
1rF	.	.
=180	=180	=180
1rF	.	.
=181	=181	=181
!	!	!LO:DY:rj
!LO:TX:a:t=2.|a	!	!
2d	.	p
(>4d'>	.	.
4d'>)	.	.
=182	=182	=182
1d	.	.
=183	=183	=183
(>4c	.	.
4D#X	.	.
4En	.	.
4c)	.	.
=184	=184	=184
(<4qqBn/	.	.
2.A)	.	.
4r	.	.
!!LO:LB:g=original
=||185	=||185	=||185
*k[f#]	*	*
1rF	.	.
!LO:TX:B:a:t=1	!	!
.	.	.
=186	=186	=186
4r	.	.
!	!	!LO:HP:a
(<8GG#XL	.	<
8AAJ	.	.
4BB	.	.
8CL	.	.
8BBJ)	.	.
=187	=187	=187
(>8BBL	.	.
8AAJ	.	[
2E)	.	.
4r	.	.
=188	=188	=188
4r	.	.
(<8AA#XL	.	<
8BBJ	.	.
4C#X	.	.
8DL	.	.
8C#J)	.	.
=189	=189	=189
(<8C#XL	.	.
8BBJ)	.	[
4.F#	.	.
(>8f#L	.	.
8g	.	.
8f#J	.	.
=190	=190	=190
8eL	.	.
8f#J	.	.
4d)	.	.
8r	.	.
8dL	.	.
8e	.	.
>8f#J	.	.
=191	=191	=191
(>8g	.	[
4c)	.	.
4A#X	.	.
4B	.	.
8c#X	.	.
!!LO:LB:g=original
=192	=192	=192
(>8.c#XL	.	.
16dkJ	.	.
8.BL	.	.
16eJk)	4	.
(>4d	.	.
*clefG2	*	*
4ccn)	3	.
=193	=193	=193
(>4.b	.	.
8b-X	.	.
8aL	.	.
8g#X	.	.
8gn	.	.
8bnJ)	.	.
=194	=194	=194
8d	.	.
(>4dd^<	.	.
8fn)	.	.
(<8fL	.	.
8eJ)	.	.
4r	.	.
=195	=195	=195
8r	.	.
(>4cc	.	.
[>8b	.	.
8bL]	.	.
8a#X\	.	.
8an	.	.
8ccJ)	.	.
=196	=196	=196
8e	.	.
(>4ee	.	.
8g)	.	.
(<8g	.	.
4f#	.	.
8f#)	.	.
=197	=197	=197
4f#	.	.
(<8.a^>L	.	.
[<16gJk	.	.
8g)]	.	.
*clefF4	*	*
16F#XLL	.	<
16GJJ	.	.
16ALL	.	.
16B	.	.
16c	.	.
16dJJ	.	.
.	.	[
!!LO:LB:g=original
=198	=198	=198
2e	.	.
2r	.	.
=199	=199	=199
4r	.	f
4FFn	.	.
8A: 8C: 8FF:	.	.
16ELL	.	.
16FnJJ	.	.
16GLL	.	.
!LO:TX:a:t=2|a. _:dur=8w3s:ext=ud:problem:text with extention lines	!	!
16A	1	.
16B-X	.	.
16cJJ	.	.
=||200	=||200	=||200
*k[b-e-]	*	*
2d	.	.
4d	.	.
4d	.	.
=201	=201	=201
(>8dL	.	.
8c	.	.
8B-	.	.
8dJ)	.	.
(>4G	.	.
4A	.	.
=202	=202	=202
8B-)	.	.
8r	.	.
2d	.	.
4d	.	.
=203	=203	=203
(>8dL	.	.
8c	.	.
>8B-)	.	.
(>8dJ	.	.
4G)	.	.
(>4At>	.	.
16qqGttt/LL	.	.
16qqAttt/JJ	.	.
=204	=204	=204
4B-)	.	.
2B-	.	.
4B-	.	.
!!LO:LB:g=original
=205	=205	=205
!	!	!LO:DY:rj
(>4B-	.	p
8AL	.	.
8B-J	.	.
8cL	.	.
8B-	.	.
8A	.	.
8GJ)	.	.
=206	=206	=206
(>8F#XL	.	.
8G	.	.
8A	.	.
8GJ	.	.
8B-L	.	<
8F#	.	.
8G	.	.
>8AJ)	.	[
=207	=207	=207
(>8B-L	.	f[
8A	.	.
8G)	.	.
(>8B-J	.	.
4En)	.	.
(<4F#Xt>	.	.
16qqE/LL	.	.
16qqF#/JJ)	.	.
=208	=208	=208
4G	.	.
4r	.	.
4r	.	.
!	!	!LO:DY:rj
(>4e-	.	p
=209	=209	=209
4F#X	.	.
4G	.	.
4A	.	.
8GL	.	.
8AJ)	.	.
=210	=210	=210
(>4B-	.	.
4A	.	.
4G)	.	.
(>4e-	.	.
=211	=211	=211
4F#X	.	.
4G	.	.
4A	.	.
8GL	.	.
8AJ)	.	.
!!LO:LB:g=original
=212	=212	=212
4B-	.	.
4c	.	.
4d	.	.
4En	.	.
=213	=213	=213
4F	.	.
(>2f	.	.
[>4f	.	.
=214	=214	=214
4f_>	.	.
16fLL]	.	.
(>16en)	.	.
16e	.	.
16fJJ	.	.
16g-XLL	.	.
16f	.	.
16e-X	.	.
16d-XJJ	.	.
16cLL	.	.
16B-	.	.
16e-	.	.
16d-JJ)	.	.
=215	=215	=215
(>16d-XLL	.	.
16cJ)	.	.
8FJ	.	.
4r	.	.
4r	.	.
4f	.	.
=216	=216	=216
(>[>4f	.	.
16fLL]	.	<
16g)	.	.
(>16g	.	.
16fJJ)	.	.
(>16fLL	.	.
16en)	.	.
(>16e	.	.
16e-XJJ)	.	.
(>16e-LL	.	.
16f)	.	.
(>16f	.	.
16e-JJ)	.	.
!!LO:LB:g:original
=217	=217	=217
(>16e-LL	.	.
16d)	.	.
16d	.	.
16dJJ	.	.
(>16dLL	.	.
16c#X)	.	.
16c#	.	.
16c#JJ	.	.
16c#LL	.	.
16cn	.	.
16c	.	.
16cJJ	.	.
(>16cLL	.	.
16B-)	.	.
16B-	.	.
>16B-JJ	.	.
=218	=218	=218
(>16B-LL	.	.
16e-)	.	.
(>16e-	.	.
16A-XJJ)	.	.
(>16A-LL	.	.
16G)	.	.
16G	.	.
16GJJ	.	.
(>16GLL	.	.
16D)	.	.
16D	.	.
16DJJ	.	.
(>16DLL	.	.
16G	.	.
16B-	.	.
16c#XJJ)	.	.
=219	=219	=219
(>16dLL	.	f
16e-	.	.
16c#X	.	.
16e-JJ)	.	.
(>16dLL	.	.
16g	.	.
16f	.	.
16e-JJ)	.	.
(>16dLL	.	.
16B-	.	.
16A	.	.
16GJJ)	.	.
(<16DLL	.	.
16Cn	.	.
16BB-	.	.
16AAJJ)	.	.
=220	=220	=220
1GG	.	.
!!LO:LB:g=original
=221	=221	=221
1GG	.	.
=222	=222	=222
4GG	.	.
2GG	.	.
!LO:TUP:a	!	!
!LO:TX:a:t=P:stem-side tuplet number:problem	!	!
(<12GGL	.	.
12GG	.	.
12GGJ)	.	.
=223	=223	=223
(<4GG	.	.
!LO:TUP:a	!	!
!LO:TX:a:t=P:stem-side tuplet number:problem	!	!
12GG'<L	.	.
12GG'<	.	.
12GG'<J	.	.
4GG)	.	.
(<16GG'<LL	.	.
16GG'<	.	.
16GG'<	.	.
16GG'<JJ)	.	.
=224	=224	=224
16GGLL	.	.
16AA	.	.
16BB-	.	.
16CJJ	.	.
16DLL	.	.
16En	.	.
16F	.	.
16F#XJJ	.	.
16GLL	.	.
16A	.	.
16B-	.	.
16cJJ	.	.
*clefG2	*	*
16dLL	.	.
16en	.	.
16fn	.	.
16f#XJJ	.	.
=225	=225	=225
(>16gLL	0	.
16a)	.	.
16b-\	.	.
16ccJJ	.	.
16ddLL	0	.
16dd	.	.
16een	.	.
16ff#XJJ	.	.
16ggLL	1	.
16aa	.	.
16bb-	1	.
16cccJJ	.	.
(>8ddd	0 3	.
*clefF4	*	*
8d)	.	.
!!LO:LB:g=original
=226	=226	=226
(>8dL	.	.
8c#X)	.	.
(>8cn	.	.
8aJ)	.	.
(>8aL	.	.
8Bn)	.	.
(>8B-X	.	.
8gJ)	.	.
=227	=227	=227
(>4g	.	.
8fL	.	.
8e-J	.	.
8dL)	.	.
(>8A	.	.
8c	.	.
8B-J	.	.
=228	=228	=228
8GL)	.	.
(>8f	.	p
8en	.	.
8e-XJ	.	.
8dL)	.	.
(>8A	.	.
8c	.	.
8B-J	.	.
=229	=229	=229
8GL)	.	.
!	!	!LO:DY:rj
(>8b-	.	f
8g	.	.
8e-J	.	.
8dL)	.	.
(>8D	.	.
8BB-	.	.
8AAJ)	.	.
=230	=230	=230
[<1GG	.	.
!!LO:LB:g=original
=231	=231	=231
8.GGL]	.	.
16DJk	.	.
!LO:TUP:a	!	!
!LO:TX:a:t=P:note-head-side tuplet number:problem	!	!
(>12GL	.	.
12B-	.	.
12dJ)	.	.
[<2GG	.	.
=232	=232	=232
(>8.GGL]	.	.
!LO:TX:i:b:t=rall.	!	!
16DJk	.	.
!LO:TUP:a	!	!
!LO:TX:a:t=P:note-head-side tuplet number:problem	!	!
12B-L	.	.
12d	.	.
12gJ)	.	.
[<2GG	.	.
=233	=233	=233
4GG]	.	.
!LO:TX:a:i:t=rall.	!	!
.	.	.
(<4GG	.	.
4FF	.	.
4EE-)	.	.
=234	=234	=234
!	!	!LO:HP:a
[<1DD	.	<
.	.	.
!	!	!LO:HP:a
.	.	[>
.	.	]]
=235	=235	=235
!LO:TX:a:B:t=a tempo.	!	!
4DD]	.	.
4r	.	.
4r	.	.
!	!	!LO:DY:rj
4A 4D 4AA 4DD	.	ff
=236	=236	=236
4B- 4D 4GG	.	.
4r	.	.
2r	.	.
==	==	==
*-	*-	*-
!!!system-decoration: s1{(s2,s3)}
!!!RDF**kern: > = above
!!!RDF**kern: < = below
!!title: @{OTL}; @{OPS} @{ONM} publisher: @{PPR}
!!!RDF**dynam: < = "cresc.", fontstyle="italic"
!!!RDF**dynam: > = "dim.", fontstyle="italic"
!!!RDF**kern: N = linked
!!!ENC: Jędrzej Mróz
!!!END: 2020-03-24
!!!EED: Mateusz Mrugas
!!!EST: 2020-03-31
!!!RDF**kern: j = marked note, color="magenta", text="extra)"
